X: 4297
T: Bobers Of Brechin, The
R: reel
M: 4/4
K: Eminor
|:GEBE GEB^c|dBAd FDAF|GEBE GEBe|dBAF E2 EB|
GEBE GEB^c|dBAd FDAF|EFGA B^cde|dBAF E2 EB:|
|:Bee^d e2B=d|ABde BdAd|Bee^d e2Be|dBAF E2 EF|
Eee^d e2 B=d|ABde fdAd|B^def gfe=d|BdAF E2EG:|

